X:339
T: Jiangxi shige hao difang
N: C1223
O: China, Jiangxi, Jinxian
S: IV, 214]
N: Plattenhuelle, schlecht) kopiert.
R: Xiaodiao, Mengjiangn diao, Guaziren diao. Xin minge]
M: 2/4
L: 1/16
K: F
A2G4GA | c2d2c4 | A2Adc2A2 | G2F2G4
G2c2c2AG | F4GFDF | C8
A3GF2A2 | G2F2G4
A3GF2A2 | G2F2G4
G2c2c2AG | F4GFDF | C4
DFCD | F2F2z2GA | F2F2z2DF | G8
G2c2c2AG | F4GFDF | C8

